svgs/regular/faucet.svg

<svg xmlns="http://www.w3.org/2000/svg" viewBox="0 0 512 512"><!-- Font Awesome Pro 6.0.0-alpha2 by @fontawesome - https://fontawesome.com License - https://fontawesome.com/license (Commercial License) --><path d="M512 368V400C512 426.51 490.51 448 464 448H400C373.49 448 352 426.51 352 400V384H323.125C299.75 413 264.25 432 224 432S148.25 413 124.875 384H24C10.746 384 0 373.254 0 360C0 346.744 10.746 336 24 336H150.75C163.5 365.125 192.25 384 224 384S284.5 365.125 297.25 336H368C385.6 336 400 350.4 400 368V400H464V368C464 314.98 421.02 272 368 272H297.25C284.5 242.875 255.75 224 224 224S163.5 242.875 150.75 272H24C10.746 272 0 261.254 0 248C0 234.744 10.746 224 24 224H124.875C143.5 200.875 169.625 184.25 200 178.375V147.625C200 147.625 81.375 160 80 160C71.25 160 64 152.5 64 143.125V112.875C64 103.5 71.25 96 80 96C81.375 96 73.875 95.25 200 109.375V80C200 71.162 207.164 64 216 64H232C240.836 64 248 71.162 248 80V109.375C374.125 95.25 366.625 96 368 96C376.75 96 384 103.5 384 112.875V143.125C384 152.5 376.75 160 368 160C366.625 160 248 147.625 248 147.625V178.375C278.375 184.25 304.5 200.875 323.125 224H368C447.529 224 512 288.471 512 368Z"/></svg>

<svg xmlns="http://www.w3.org/2000/svg" viewBox="0 0 512 512"><!--! Font Awesome Pro 6.0.0-alpha3 by @fontawesome - https://fontawesome.com License - https://fontawesome.com/license (Commercial License) --><path d="M512 368v32c0 26.51-21.49 48-48 48h-64c-26.51 0-48-21.49-48-48V384h-28.88C299.8 413 264.3 432 224 432S148.3 413 124.9 384H24C10.75 384 0 373.3 0 360c0-13.26 10.75-24 24-24h126.8C163.5 365.1 192.3 384 224 384s60.5-18.88 73.25-48H368c17.6 0 32 14.4 32 32v32h64v-32c0-53.02-42.98-96-96-96h-70.75C284.5 242.9 255.8 224 224 224S163.5 242.9 150.8 272H24C10.75 272 0 261.3 0 248C0 234.7 10.75 224 24 224h100.9C143.5 200.9 169.6 184.3 200 178.4V147.6C200 147.6 81.38 160 80 160C71.25 160 64 152.5 64 143.1V112.9c0-9.375 7.238-16.85 15.99-16.85c1.375 0-6.113-.7881 120 13.34V80c0-8.838 7.164-16 16-16h16c8.836 0 16 7.162 16 16v29.38c126.1-14.12 118.6-13.34 120-13.34C376.8 96.04 384 103.5 384 112.9v30.24C384 152.5 376.8 160 368 160c-1.375 0-120-12.38-120-12.38v30.75C278.4 184.3 304.5 200.9 323.1 224H368C447.5 224 512 288.5 512 368z"/></svg>
